flaticon/technology/game-controller.svg

<svg xmlns="http://www.w3.org/2000/svg" width="32" height="32" viewBox="0 0 24 24">
    <path d="M 16.800781 7.203125 C 16.800781 6.320312 16.082031 5.605469 15.199219 5.605469 C 14.316406 5.605469 13.601562 6.320312 13.601562 7.203125 C 13.601562 8.085938 14.316406 8.804688 15.199219 8.804688 C 16.082031 8.804688 16.800781 8.085938 16.800781 7.203125 Z M 15.199219 8.003906 C 14.757812 8.003906 14.398438 7.644531 14.398438 7.203125 C 14.398438 6.761719 14.757812 6.402344 15.199219 6.402344 C 15.640625 6.402344 16 6.761719 16 7.203125 C 16 7.644531 15.640625 8.003906 15.199219 8.003906 Z M 15.199219 8.003906"/>
    <path d="M19.199219 9.605469C19.199219 8.722656 18.484375 8.003906 17.601562 8.003906 16.71875 8.003906 16 8.722656 16 9.605469 16 10.488281 16.71875 11.203125 17.601562 11.203125 18.484375 11.203125 19.199219 10.488281 19.199219 9.605469zM17.601562 10.40625C17.160156 10.40625 16.800781 10.046875 16.800781 9.605469 16.800781 9.164062 17.160156 8.804688 17.601562 8.804688 18.042969 8.804688 18.402344 9.164062 18.402344 9.605469 18.402344 10.046875 18.042969 10.40625 17.601562 10.40625zM8.132812 7.203125L7.597656 7.203125 7.597656 6.671875C7.597656 6.304688 7.300781 6.003906 6.929688 6.003906L5.867188 6.003906C5.5 6.003906 5.199219 6.304688 5.199219 6.671875L5.199219 7.203125 4.667969 7.203125C4.296875 7.203125 4 7.503906 4 7.871094L4 8.9375C4 9.304688 4.296875 9.605469 4.667969 9.605469L5.199219 9.605469 5.199219 10.136719C5.199219 10.503906 5.5 10.804688 5.867188 10.804688L6.929688 10.804688C7.300781 10.804688 7.597656 10.503906 7.597656 10.136719L7.597656 9.605469 8.132812 9.605469C8.5 9.605469 8.800781 9.304688 8.800781 8.9375L8.800781 7.871094C8.800781 7.503906 8.5 7.203125 8.132812 7.203125zM8 8.804688L7.46875 8.804688C7.097656 8.804688 6.800781 9.105469 6.800781 9.472656L6.800781 10.003906 6 10.003906 6 9.472656C6 9.105469 5.699219 8.804688 5.332031 8.804688L4.800781 8.804688 4.800781 8.003906 5.332031 8.003906C5.699219 8.003906 6 7.703125 6 7.335938L6 6.804688 6.800781 6.804688 6.800781 7.335938C6.800781 7.703125 7.097656 8.003906 7.46875 8.003906L8 8.003906zM8 8.804688"/>
    <path d="M 23.59375 8.3125 L 23.574219 8.246094 C 23.5625 8.125 23.542969 8 23.515625 7.875 C 23.335938 6.984375 22.867188 6.144531 22.15625 5.441406 C 21.308594 4.601562 19.757812 3.714844 17.878906 3.621094 L 17.542969 2.785156 C 17.261719 2.085938 16.660156 1.554688 15.925781 1.371094 L 15.511719 1.269531 C 13.054688 0.65625 10.753906 0.65625 8.488281 1.269531 L 8.074219 1.371094 C 7.339844 1.554688 6.734375 2.085938 6.457031 2.785156 L 6.121094 3.621094 C 4.242188 3.714844 2.691406 4.601562 1.84375 5.441406 C 1.136719 6.144531 0.664062 6.984375 0.484375 7.875 C 0.460938 7.980469 0.445312 8.089844 0.429688 8.191406 L 0.40625 8.3125 C 0.390625 8.390625 -0.847656 16.671875 1.074219 21.382812 C 1.242188 21.785156 1.492188 22.132812 1.804688 22.386719 C 2.152344 22.667969 2.519531 22.808594 2.890625 22.808594 C 3.339844 22.808594 3.789062 22.601562 4.203125 22.191406 C 5.902344 20.519531 6.59375 14.273438 6.621094 14.003906 L 6.660156 13.605469 C 6.835938 13.796875 6.980469 13.992188 7.097656 14.171875 C 7.375 14.601562 7.558594 15.132812 7.648438 15.75 C 8.15625 19.28125 9.472656 21.375 10.488281 22.507812 C 10.875 22.941406 11.425781 23.191406 12 23.191406 C 12.574219 23.191406 13.125 22.941406 13.511719 22.507812 C 14.527344 21.375 15.84375 19.28125 16.351562 15.75 C 16.441406 15.132812 16.625 14.601562 16.902344 14.171875 C 17.015625 13.992188 17.164062 13.796875 17.339844 13.609375 L 17.378906 14.007812 C 17.40625 14.273438 18.097656 20.515625 19.796875 22.191406 C 20.210938 22.601562 20.660156 22.808594 21.109375 22.808594 C 21.476562 22.808594 21.847656 22.667969 22.195312 22.386719 C 22.507812 22.132812 22.757812 21.785156 22.921875 21.382812 C 24.847656 16.671875 23.609375 8.390625 23.59375 8.3125 Z M 7.199219 3.082031 C 7.382812 2.617188 7.785156 2.269531 8.269531 2.148438 L 8.6875 2.042969 C 10.828125 1.464844 12.996094 1.464844 15.320312 2.046875 L 15.730469 2.148438 C 16.214844 2.269531 16.617188 2.617188 16.800781 3.082031 L 17.007812 3.605469 L 6.988281 3.605469 Z M 5.828125 13.921875 C 5.640625 15.648438 4.882812 20.398438 3.640625 21.625 C 3.175781 22.082031 2.753906 22.125 2.308594 21.765625 C 2.101562 21.59375 1.929688 21.359375 1.816406 21.078125 C 0.597656 18.09375 0.71875 13.296875 0.949219 10.535156 C 1.109375 10.78125 1.296875 10.996094 1.492188 11.183594 C 1.496094 11.1875 1.5 11.191406 1.503906 11.191406 C 1.597656 11.28125 1.691406 11.367188 1.785156 11.441406 C 1.796875 11.453125 1.808594 11.460938 1.816406 11.46875 C 1.910156 11.542969 2.007812 11.613281 2.097656 11.675781 C 2.671875 12.066406 3.378906 12.3125 4.195312 12.40625 C 4.378906 12.425781 4.550781 12.460938 4.714844 12.496094 C 4.773438 12.511719 4.828125 12.527344 4.882812 12.542969 C 4.988281 12.574219 5.089844 12.601562 5.1875 12.636719 C 5.25 12.660156 5.3125 12.6875 5.375 12.714844 C 5.457031 12.75 5.535156 12.78125 5.609375 12.820312 C 5.675781 12.855469 5.742188 12.890625 5.808594 12.929688 C 5.84375 12.953125 5.878906 12.972656 5.914062 12.996094 Z M 17.242188 12.601562 L 17.242188 12.613281 C 16.796875 12.972656 16.460938 13.375 16.226562 13.742188 C 15.890625 14.265625 15.667969 14.90625 15.5625 15.632812 C 15.082031 18.96875 13.859375 20.921875 12.917969 21.976562 C 12.4375 22.511719 11.5625 22.511719 11.082031 21.976562 C 10.140625 20.921875 8.917969 18.96875 8.4375 15.632812 C 8.332031 14.90625 8.109375 14.265625 7.773438 13.742188 C 7.539062 13.375 7.203125 12.972656 6.757812 12.613281 L 6.757812 12.601562 L 6.582031 12.476562 C 6.277344 12.253906 5.925781 12.058594 5.515625 11.902344 C 5.464844 11.882812 5.410156 11.871094 5.359375 11.855469 C 5.21875 11.808594 5.082031 11.761719 4.929688 11.726562 C 4.722656 11.675781 4.507812 11.636719 4.285156 11.613281 C 3.597656 11.535156 3.015625 11.332031 2.550781 11.015625 C 2.421875 10.925781 2.304688 10.835938 2.191406 10.738281 C 2.148438 10.699219 2.109375 10.660156 2.066406 10.621094 C 2.007812 10.5625 1.945312 10.503906 1.890625 10.445312 C 1.84375 10.394531 1.804688 10.339844 1.761719 10.285156 C 1.722656 10.234375 1.679688 10.183594 1.644531 10.132812 C 1.605469 10.070312 1.566406 10.007812 1.53125 9.945312 C 1.503906 9.898438 1.480469 9.851562 1.453125 9.800781 C 1.421875 9.730469 1.390625 9.660156 1.363281 9.589844 C 1.347656 9.546875 1.332031 9.5 1.320312 9.453125 C 1.296875 9.375 1.273438 9.300781 1.257812 9.21875 C 1.25 9.179688 1.242188 9.136719 1.238281 9.09375 C 1.222656 9.007812 1.210938 8.921875 1.207031 8.832031 C 1.203125 8.796875 1.207031 8.761719 1.207031 8.722656 C 1.207031 8.625 1.203125 8.527344 1.214844 8.429688 C 1.222656 8.300781 1.238281 8.167969 1.265625 8.035156 C 1.417969 7.300781 1.8125 6.601562 2.40625 6.007812 C 3.1875 5.234375 4.660156 4.402344 6.4375 4.402344 L 17.5625 4.402344 C 19.339844 4.402344 20.8125 5.234375 21.59375 6.007812 C 22.1875 6.601562 22.582031 7.300781 22.734375 8.035156 C 22.761719 8.167969 22.777344 8.300781 22.785156 8.429688 C 22.796875 8.527344 22.792969 8.625 22.792969 8.722656 C 22.792969 8.761719 22.796875 8.796875 22.792969 8.832031 C 22.789062 8.921875 22.777344 9.007812 22.761719 9.09375 C 22.757812 9.136719 22.75 9.179688 22.742188 9.21875 C 22.726562 9.300781 22.703125 9.375 22.679688 9.453125 C 22.667969 9.5 22.652344 9.546875 22.636719 9.589844 C 22.609375 9.660156 22.578125 9.730469 22.546875 9.800781 C 22.519531 9.851562 22.496094 9.898438 22.46875 9.945312 C 22.433594 10.007812 22.394531 10.070312 22.355469 10.132812 C 22.316406 10.183594 22.277344 10.234375 22.238281 10.289062 C 22.195312 10.339844 22.15625 10.394531 22.109375 10.445312 C 22.054688 10.503906 21.992188 10.5625 21.929688 10.621094 C 21.886719 10.660156 21.851562 10.703125 21.808594 10.738281 C 21.695312 10.835938 21.578125 10.929688 21.449219 11.015625 C 21.390625 11.054688 21.328125 11.085938 21.269531 11.121094 C 20.851562 11.367188 20.355469 11.527344 19.78125 11.601562 C 19.757812 11.605469 19.738281 11.609375 19.714844 11.613281 C 19.710938 11.613281 19.707031 11.613281 19.703125 11.613281 C 19.484375 11.640625 19.273438 11.675781 19.070312 11.726562 C 18.917969 11.761719 18.777344 11.808594 18.636719 11.855469 C 18.585938 11.875 18.535156 11.886719 18.484375 11.902344 C 18.074219 12.058594 17.71875 12.253906 17.417969 12.476562 Z M 22.183594 21.078125 C 22.070312 21.359375 21.898438 21.59375 21.691406 21.765625 C 21.246094 22.125 20.824219 22.082031 20.359375 21.625 C 19.117188 20.398438 18.359375 15.648438 18.175781 13.925781 L 18.085938 12.996094 C 18.121094 12.972656 18.15625 12.953125 18.191406 12.929688 C 18.257812 12.890625 18.324219 12.855469 18.390625 12.820312 C 18.464844 12.78125 18.542969 12.75 18.621094 12.714844 C 18.6875 12.6875 18.75 12.660156 18.8125 12.636719 C 18.910156 12.601562 19.011719 12.574219 19.117188 12.542969 C 19.171875 12.527344 19.226562 12.511719 19.285156 12.5 C 19.449219 12.460938 19.621094 12.429688 19.804688 12.40625 C 20.621094 12.316406 21.328125 12.070312 21.902344 11.675781 C 21.992188 11.613281 22.085938 11.542969 22.179688 11.472656 C 22.191406 11.460938 22.203125 11.453125 22.214844 11.441406 C 22.308594 11.367188 22.402344 11.285156 22.496094 11.195312 C 22.5 11.191406 22.503906 11.1875 22.507812 11.183594 C 22.703125 10.992188 22.890625 10.78125 23.050781 10.539062 C 23.28125 13.296875 23.402344 18.09375 22.183594 21.078125 Z M 22.183594 21.078125"/>
    <path d="M12 12.40625C10.9375 12.40625 10.074219 13.238281 10.011719 14.285156 9.746094 14.679688 9.601562 15.132812 9.601562 15.605469 9.601562 16.929688 10.675781 18.003906 12 18.003906 13.324219 18.003906 14.398438 16.929688 14.398438 15.605469 14.398438 15.132812 14.253906 14.679688 13.988281 14.285156 13.925781 13.238281 13.0625 12.40625 12 12.40625zM12 13.203125C12.660156 13.203125 13.195312 13.738281 13.199219 14.394531L13.199219 14.414062C13.195312 15.070312 12.65625 15.605469 12 15.605469 11.34375 15.605469 10.804688 15.070312 10.800781 14.414062L10.800781 14.394531C10.804688 13.738281 11.339844 13.203125 12 13.203125zM13.601562 15.605469C13.601562 16.488281 12.882812 17.207031 12 17.207031 11.117188 17.207031 10.398438 16.488281 10.398438 15.605469 10.398438 15.605469 10.398438 15.601562 10.398438 15.601562 10.449219 15.667969 10.507812 15.734375 10.566406 15.792969 10.585938 15.816406 10.609375 15.835938 10.632812 15.855469 10.699219 15.921875 10.773438 15.980469 10.847656 16.035156 10.863281 16.046875 10.878906 16.058594 10.894531 16.070312 10.984375 16.128906 11.082031 16.179688 11.179688 16.226562 11.207031 16.234375 11.230469 16.246094 11.253906 16.257812 11.355469 16.300781 11.460938 16.332031 11.570312 16.355469 11.59375 16.363281 11.617188 16.363281 11.636719 16.367188 11.757812 16.390625 11.875 16.40625 12 16.40625 12.125 16.40625 12.242188 16.390625 12.363281 16.367188 12.382812 16.363281 12.40625 16.363281 12.429688 16.355469 12.539062 16.332031 12.644531 16.300781 12.746094 16.257812 12.769531 16.246094 12.792969 16.234375 12.820312 16.226562 12.917969 16.179688 13.015625 16.128906 13.105469 16.070312 13.121094 16.058594 13.136719 16.046875 13.152344 16.035156 13.226562 15.980469 13.300781 15.921875 13.367188 15.855469 13.390625 15.835938 13.414062 15.816406 13.433594 15.792969 13.492188 15.734375 13.550781 15.667969 13.601562 15.601562 13.601562 15.601562 13.601562 15.605469 13.601562 15.605469zM20 6.003906C20 6.226562 19.820312 6.402344 19.601562 6.402344 19.378906 6.402344 19.199219 6.226562 19.199219 6.003906 19.199219 5.78125 19.378906 5.605469 19.601562 5.605469 19.820312 5.605469 20 5.78125 20 6.003906zM20 7.605469C20 7.824219 19.820312 8.003906 19.601562 8.003906 19.378906 8.003906 19.199219 7.824219 19.199219 7.605469 19.199219 7.382812 19.378906 7.203125 19.601562 7.203125 19.820312 7.203125 20 7.382812 20 7.605469zM19.199219 6.804688C19.199219 7.023438 19.023438 7.203125 18.800781 7.203125 18.578125 7.203125 18.402344 7.023438 18.402344 6.804688 18.402344 6.582031 18.578125 6.402344 18.800781 6.402344 19.023438 6.402344 19.199219 6.582031 19.199219 6.804688zM20.800781 6.804688C20.800781 7.023438 20.621094 7.203125 20.402344 7.203125 20.179688 7.203125 20 7.023438 20 6.804688 20 6.582031 20.179688 6.402344 20.402344 6.402344 20.621094 6.402344 20.800781 6.582031 20.800781 6.804688zM20.800781 6.804688"/>
</svg>

<svg xmlns="http://www.w3.org/2000/svg" width="32" height="32" viewBox="0 0 24 24">
    <path d="M16.8 7.203a1.6 1.6 0 1 0-1.6 1.602c.882 0 1.6-.72 1.6-1.602zm-1.6.8a.802.802 0 0 1 0-1.6.802.802 0 0 1 0 1.6zm0 0"/>
    <path d="M19.2 9.605a1.6 1.6 0 0 0-1.598-1.601c-.883 0-1.602.719-1.602 1.601a1.6 1.6 0 0 0 3.2 0zm-1.598.801a.802.802 0 0 1 0-1.601.802.802 0 0 1 0 1.601zm0 0M8.133 7.203h-.535v-.531a.668.668 0 0 0-.668-.668H5.867a.67.67 0 0 0-.668.668v.531h-.531c-.371 0-.668.3-.668.668v1.066c0 .368.297.668.668.668h.531v.532c0 .367.301.668.668.668H6.93c.37 0 .668-.301.668-.668v-.532h.535a.67.67 0 0 0 .668-.668V7.872a.67.67 0 0 0-.668-.668zM8 8.805h-.531c-.371 0-.668.3-.668.668v.53H6v-.53a.67.67 0 0 0-.668-.668h-.531v-.801h.531A.67.67 0 0 0 6 7.336v-.531h.8v.53c0 .368.298.669.669.669H8zm0 0"/>
    <path d="M23.594 8.313l-.02-.067a3.176 3.176 0 0 0-.058-.371c-.18-.89-.649-1.73-1.36-2.434-.847-.84-2.398-1.726-4.277-1.82l-.336-.836a2.37 2.37 0 0 0-1.617-1.414l-.414-.101c-2.457-.614-4.758-.614-7.024 0l-.414.101a2.362 2.362 0 0 0-1.617 1.414l-.336.836c-1.879.094-3.43.98-4.277 1.82-.707.704-1.18 1.543-1.36 2.434-.023.105-.039.215-.054.316l-.024.121c-.015.079-1.254 8.36.668 13.07.168.403.418.75.73 1.005.348.281.716.422 1.087.422.449 0 .898-.207 1.312-.618 1.7-1.671 2.39-7.918 2.418-8.187l.04-.399c.175.192.32.387.437.567.277.43.46.96.55 1.578.508 3.531 1.825 5.625 2.84 6.758.387.433.938.683 1.512.683.574 0 1.125-.25 1.512-.683 1.015-1.133 2.332-3.227 2.84-6.758.09-.617.273-1.148.55-1.578a3.8 3.8 0 0 1 .438-.563l.039.399c.027.265.719 6.508 2.418 8.183.414.41.863.618 1.312.618.368 0 .739-.141 1.086-.422.313-.254.563-.602.727-1.004 1.926-4.711.687-12.992.672-13.07zM7.199 3.082a1.558 1.558 0 0 1 1.07-.934l.418-.105c2.141-.578 4.31-.578 6.633.004l.41.101c.485.122.887.47 1.07.934l.208.523H6.988zm-1.37 10.84c-.188 1.726-.946 6.476-2.188 7.703-.465.457-.887.5-1.332.14a1.728 1.728 0 0 1-.493-.687C.598 18.094.72 13.297.95 10.535a3.703 3.703 0 0 0 .555.656c.094.09.187.176.281.25.012.012.024.02.031.028.094.074.192.144.282.207.574.39 1.28.636 2.097.73.184.02.356.055.52.09l.168.047c.105.031.207.059.304.094.063.023.125.05.188.078.082.035.16.066.234.105.067.035.133.07.2.11l.105.066zm11.413-1.32v.011c-.445.36-.781.762-1.015 1.13-.336.523-.559 1.163-.665 1.89-.48 3.336-1.703 5.289-2.644 6.344a1.25 1.25 0 0 1-1.836 0c-.941-1.055-2.164-3.008-2.645-6.344-.105-.727-.328-1.367-.664-1.89a4.753 4.753 0 0 0-1.015-1.13v-.011l-.176-.125a4.522 4.522 0 0 0-1.066-.575c-.051-.02-.106-.03-.157-.047-.14-.046-.277-.093-.43-.128a4.822 4.822 0 0 0-.644-.114c-.687-.078-1.27-.281-1.734-.597a4.369 4.369 0 0 1-.36-.278l-.125-.117c-.058-.059-.12-.117-.175-.176-.047-.05-.086-.105-.13-.16-.038-.05-.081-.101-.116-.152-.04-.063-.079-.125-.114-.188-.027-.047-.05-.093-.078-.144a4.876 4.876 0 0 1-.09-.211 1.399 1.399 0 0 1-.043-.137c-.023-.078-.047-.152-.062-.234a1.196 1.196 0 0 1-.02-.125 1.916 1.916 0 0 1-.031-.262c-.004-.035 0-.07 0-.11 0-.097-.004-.195.008-.292.008-.13.023-.262.05-.395.153-.734.548-1.433 1.141-2.027.781-.774 2.254-1.606 4.031-1.606h11.125c1.778 0 3.25.832 4.032 1.606.593.594.988 1.293 1.14 2.027.028.133.043.266.051.395.012.097.008.195.008.293 0 .039.004.074 0 .109-.004.09-.016.176-.031.262a1.196 1.196 0 0 1-.02.125c-.015.082-.039.156-.062.234a1.399 1.399 0 0 1-.043.137c-.028.07-.059.14-.09.21-.027.052-.05.098-.078.145-.035.063-.074.125-.114.188-.039.05-.078.101-.117.156-.043.05-.082.106-.129.156-.054.059-.117.117-.18.176-.042.04-.077.082-.12.117-.114.098-.23.192-.36.278-.058.039-.12.07-.18.105-.417.246-.914.406-1.488.48l-.066.012h-.012c-.219.028-.43.063-.633.114a4.683 4.683 0 0 0-.433.128c-.051.02-.102.032-.153.047-.41.157-.765.352-1.066.575zm4.942 8.476a1.728 1.728 0 0 1-.493.688c-.445.359-.867.316-1.332-.141-1.242-1.227-2-5.977-2.183-7.7l-.09-.929.105-.066c.067-.04.133-.075.2-.11.074-.039.152-.07.23-.105.067-.027.129-.055.192-.078.097-.035.199-.063.304-.094a4.93 4.93 0 0 1 .688-.137c.816-.09 1.523-.336 2.097-.73.09-.063.184-.133.278-.203.011-.012.023-.02.035-.032a3.96 3.96 0 0 0 .281-.246l.012-.011c.195-.192.383-.403.543-.645.23 2.758.351 7.555-.867 10.54zm0 0"/>
    <path d="M12 12.406a1.995 1.995 0 0 0-1.988 1.88c-.266.394-.41.847-.41 1.32a2.399 2.399 0 0 0 4.796 0c0-.473-.144-.926-.41-1.32A1.995 1.995 0 0 0 12 12.405zm0 .797a1.2 1.2 0 0 1 1.2 1.192v.02a1.203 1.203 0 0 1-1.2 1.19 1.203 1.203 0 0 1-1.2-1.19v-.02a1.2 1.2 0 0 1 1.2-1.192zm1.602 2.402c0 .883-.72 1.602-1.602 1.602a1.604 1.604 0 0 1-1.602-1.602v-.003a1.963 1.963 0 0 0 .235.253 1.87 1.87 0 0 0 .547.372c.027.007.05.02.074.03.101.044.207.075.316.098.024.008.047.008.067.012.12.024.238.04.363.04s.242-.016.363-.04c.02-.004.043-.004.067-.012.11-.023.215-.054.316-.097.024-.012.047-.024.074-.031.098-.047.196-.098.285-.157l.047-.035a1.87 1.87 0 0 0 .215-.18 1.963 1.963 0 0 0 .234-.254v.004zm0 0M20 6.004c0 .223-.18.398-.398.398a.398.398 0 1 1 0-.797c.218 0 .398.176.398.399zm0 0M20 7.605a.4.4 0 1 1-.8-.003.4.4 0 0 1 .8.003zm0 0M19.2 6.805a.398.398 0 1 1-.798 0 .398.398 0 1 1 .797 0zm0 0M20.8 6.805A.4.4 0 1 1 20 6.8a.4.4 0 0 1 .8.004zm0 0"/>
</svg>
